X:1
T:Title
L:1/8
Q:1/4=130
M:4/4
K:G
V:1 treble nm="Church Organ, Staff"
V:1
 D4 D2 D2 | G6 A2 | B2 B2 A2 A2 | G4 z2 d2 | B2 c2 d2 D2 | G2 F2 E2 E2 | D6 A2 | A2 B2 c4 | %8
w: By~G.~Wither~~Mr.~H.~S.~Irons * *||||||||
 c2 G2 G2 G2 | c2 B2 A4 | z2 A2 G2 D2 | G2 A2 B2 d2 | A2 A2 G4 | z2 G2 c2 d2 | e2 e2 A2 d2 | %15
w: |||||||
 d2 ^c2 d4 | z2 D2 G2 A2 | B2 A2 c2 B2 | A2 A2 G4 | z2 G2 c2 d2 | e2 e2 A2 d2 | d2 ^c2 d4 | %22
w: |||||||
 z2 D2 G2 A2 | B2 A2 c2 B2 | A2 A2 G4 | G4 d2 c2 | B2 B2 A2 A2 | B4 z2 B2 | B2 ^c2 d2 d2 | %29
w: |||||||
 d2 ^c2 d4- | d2 D2 G2 A2 | B2 A2 c2 B2 | A2 d2 d2 c2 | B2 c2 A2 A2 | G4 z4 |] %35
w: ||||||

